X:312
T: ES SOLL SICH JA KEINER MIT DER LIEBE ABGEBEN
N: Z0310
O: Europa, Mitteleuropa, Deutschland, Thueringen
R: Lyrisches Lied, Romanze, verlassene Liebe, Tod
M: 3/4
L: 1/8
K: G
D2 | G2G2A2 | B2B2dc | B2B2A2 | G2G2
D2 | G2G2A2 | B2B2dc | B2B2A2 | G2G2
d2 | g2g2f2 | e2e2d2 | c2c2B2 | A4
dc | B2B2A2 | G4
dc | B2B2A2 | G4

@@@ Tune index: 10070
